src/icons/watch.svg

<svg width="56" height="56" viewBox="0 0 56 56" fill="none" xmlns="http://www.w3.org/2000/svg">
<g clip-path="url(#clip0_1335_5215)">
<path d="M56.0176 -0.0700073H0.0175781V55.93H56.0176V-0.0700073Z" fill="white"/>
<path d="M22.5056 16.205C21.9106 16.2575 21.4556 16.7475 21.4731 17.325V31.9025C21.4731 32.445 21.8581 32.935 22.4006 33.0225C22.6631 33.075 22.9431 33.0225 23.1706 32.8825L35.5781 25.585C35.9281 25.3925 36.1381 25.0075 36.1381 24.605C36.1381 24.2025 35.9281 23.835 35.5781 23.625L23.1706 16.3275C22.9606 16.205 22.7331 16.1525 22.5056 16.17V16.205Z" fill="#010101"/>
<path d="M23.1523 18.3225L33.8798 24.6225L23.1523 30.94V18.3225Z" fill="white"/>
<path d="M47.7934 44.415H8.15586C4.49836 44.415 1.50586 41.44 1.50586 37.765V10.22C1.50586 6.56251 4.48086 3.57001 8.15586 3.57001H47.7934C51.4509 3.57001 54.4434 6.54501 54.4434 10.22V37.765C54.4434 41.4225 51.4684 44.415 47.7934 44.415ZM8.15586 5.16251C5.37336 5.16251 3.09836 7.43751 3.09836 10.22V37.765C3.09836 40.5475 5.37336 42.8225 8.15586 42.8225H47.7934C50.5759 42.8225 52.8509 40.5475 52.8509 37.765V10.22C52.8509 7.43751 50.5759 5.16251 47.7934 5.16251H8.15586Z" fill="#1D1D1B"/>
<path d="M39.7424 49.28H13.8949C13.4574 49.28 13.1074 48.93 13.1074 48.4925C13.1074 48.055 13.4574 47.705 13.8949 47.705H39.7424C40.1799 47.705 40.5299 48.055 40.5299 48.4925C40.5299 48.93 40.1799 49.28 39.7424 49.28Z" fill="#1D1D1B"/>
</g>
<defs>
<clipPath id="clip0_1335_5215">
<rect width="56" height="56" fill="white"/>
</clipPath>
</defs>
</svg>

<svg width="56" height="56" fill="currentColor" xmlns="http://www.w3.org/2000/svg"><path d="M22.506 16.205c-.595.053-1.05.543-1.033 1.12v14.578c0 .542.385 1.032.928 1.12.262.052.542 0 .77-.14l12.407-7.298c.35-.193.56-.578.56-.98s-.21-.77-.56-.98l-12.407-7.297a1.136 1.136 0 00-.665-.158v.035z"/><path d="M23.152 18.323l10.728 6.3-10.728 6.317V18.323z"/><path d="M47.793 44.415H8.156c-3.658 0-6.65-2.975-6.65-6.65V10.22c0-3.657 2.975-6.65 6.65-6.65h39.637c3.658 0 6.65 2.975 6.65 6.65v27.545c0 3.657-2.975 6.65-6.65 6.65zM8.156 5.163a5.071 5.071 0 00-5.058 5.057v27.545a5.071 5.071 0 005.058 5.057h39.637a5.071 5.071 0 005.058-5.057V10.22a5.071 5.071 0 00-5.058-5.057H8.156zM39.742 49.28H13.895a.784.784 0 01-.788-.788c0-.437.35-.787.788-.787h25.847c.438 0 .788.35.788.788 0 .437-.35.787-.788.787z"/></svg>
